ui/StatusQ/src/assets/img/icons/emojiCategories/recent.svg

<svg fill="none" height="20" viewBox="0 0 20 20" width="20" xmlns="http://www.w3.org/2000/svg"><g fill="#939ba1"><path d="m10.75 5c0-.41421-.3358-.75-.75-.75-.41421 0-.75.33579-.75.75v4.17157c0 .72935.28973 1.42883.8055 1.94453l2.4142 2.4142c.2929.2929.7677.2929 1.0606 0s.2929-.7677 0-1.0606l-2.4142-2.4142c-.2344-.23446-.3661-.55241-.3661-.88393z"/><path clip-rule="evenodd" d="m20 10c0 5.5228-4.4772 10-10 10-5.52285 0-10-4.4772-10-10 0-5.52285 4.47715-10 10-10 5.5228 0 10 4.47715 10 10zm-1.5 0c0 4.6944-3.8056 8.5-8.5 8.5-4.69442 0-8.5-3.8056-8.5-8.5 0-4.69442 3.80558-8.5 8.5-8.5 4.6944 0 8.5 3.80558 8.5 8.5z" fill-rule="evenodd"/></g></svg>

<svg width="20" height="20" viewBox="0 0 20 20" fill="none" xmlns="http://www.w3.org/2000/svg">
<path d="M10.75 5C10.75 4.58579 10.4142 4.25 10 4.25C9.58579 4.25 9.25 4.58579 9.25 5V9.17157C9.25 9.90092 9.53973 10.6004 10.0555 11.1161L12.4697 13.5303C12.7626 13.8232 13.2374 13.8232 13.5303 13.5303C13.8232 13.2374 13.8232 12.7626 13.5303 12.4697L11.1161 10.0555C10.8817 9.82104 10.75 9.50309 10.75 9.17157V5Z" fill="#939BA1"/>
<path fill-rule="evenodd" clip-rule="evenodd" d="M20 10C20 15.5228 15.5228 20 10 20C4.47715 20 0 15.5228 0 10C0 4.47715 4.47715 0 10 0C15.5228 0 20 4.47715 20 10ZM18.5 10C18.5 14.6944 14.6944 18.5 10 18.5C5.30558 18.5 1.5 14.6944 1.5 10C1.5 5.30558 5.30558 1.5 10 1.5C14.6944 1.5 18.5 5.30558 18.5 10Z" fill="#939BA1"/>
</svg>
